careers/base/static/css/protocol/img/icons/social/protocol/black.svg

<?xml version="1.0" encoding="UTF-8"?><svg width="16px" height="16px" viewBox="0 0 16 16" version="1.1" xmlns="http://www.w3.org/2000/svg" xmlns:xlink="http://www.w3.org/1999/xlink" style="background: #000000;"><path fill="#FFFFFF" d="M15,2 L11.6013013,14 L9.39999962,14 L12.8000002,2 L15,2 Z M10.5,2 L7,14 L4.80000019,14 L8.19999981,2 L10.5,2 Z M1,6 L3.5,6 L3.5,9 L1,9 L1,6 Z M1,11 L3.5,11 L3.5,14 L1,14 L1,11 Z" id="path-1"></path></svg>

<svg width="16" height="16" viewBox="0 0 16 16" xmlns="http://www.w3.org/2000/svg" style="background:#000"><path fill="#FFF" d="M15 2l-3.399 12H9.4l3.4-12H15zm-4.5 0L7 14H4.8L8.2 2h2.3zM1 6h2.5v3H1V6zm0 5h2.5v3H1v-3z"/></svg>
